Pods/ProtonCore-UIFoundations/libraries/UIFoundations/Sources/Assets.xcassets/Images/IconSet/ic-user-arrow-left.imageset/ic-user-arrow-left.svg

<svg width="24" height="24" viewBox="0 0 24 24" fill="none" xmlns="http://www.w3.org/2000/svg">
<path fill-rule="evenodd" clip-rule="evenodd" d="M15 7.5C15 9.15685 13.6569 10.5 12 10.5C10.3431 10.5 9 9.15685 9 7.5C9 5.84315 10.3431 4.5 12 4.5C13.6569 4.5 15 5.84315 15 7.5ZM16.5 7.5C16.5 9.98528 14.4853 12 12 12C9.51472 12 7.5 9.98528 7.5 7.5C7.5 5.01472 9.51472 3 12 3C14.4853 3 16.5 5.01472 16.5 7.5ZM6.45409 15.9C6.87901 15.3334 7.54588 15 8.25409 15L13.5 15.0006V13.5006L8.25409 13.5C7.07375 13.5 5.96229 14.0557 5.25409 15L3.45409 17.4C2.34162 18.8833 3.39998 21 5.25408 21L13.5 21.0006V19.5006L5.25408 19.5C4.63605 19.5 4.28326 18.7944 4.65409 18.3L6.45409 15.9ZM22.5 17.25C22.5 16.8358 22.1642 16.5 21.75 16.5H16.0607L17.7803 14.7803C18.0732 14.4874 18.0732 14.0126 17.7803 13.7197C17.4874 13.4268 17.0126 13.4268 16.7197 13.7197L13.9318 16.5075C13.5218 16.9176 13.5218 17.5824 13.9318 17.9925L16.7197 20.7803C17.0126 21.0732 17.4874 21.0732 17.7803 20.7803C18.0732 20.4874 18.0732 20.0126 17.7803 19.7197L16.0607 18H21.75C22.1642 18 22.5 17.6642 22.5 17.25Z" fill="#0C0C14"/>
</svg>

<svg xmlns="http://www.w3.org/2000/svg" width="24" height="24" viewBox="0 0 24 24">
  <g class="ic-user-arrow-left">
    <path fill-rule="evenodd" d="M15 7.5a3 3 0 1 1-6 0 3 3 0 0 1 6 0Zm1.5 0a4.5 4.5 0 1 1-9 0 4.5 4.5 0 0 1 9 0ZM6.454 15.9a2.25 2.25 0 0 1 1.8-.9H13.5v-1.5H8.254a3.75 3.75 0 0 0-3 1.5l-1.8 2.4C2.342 18.883 3.4 21 5.254 21H13.5v-1.5H5.254a.75.75 0 0 1-.6-1.2l1.8-2.4ZM22.5 17.25a.75.75 0 0 0-.75-.75h-5.69l1.72-1.72a.75.75 0 1 0-1.06-1.06l-2.788 2.787a1.05 1.05 0 0 0 0 1.485l2.788 2.788a.75.75 0 1 0 1.06-1.06L16.06 18h5.69a.75.75 0 0 0 .75-.75Z" class="Icon"/>
  </g>
</svg>
